X:1
T:Poor Little Kitty Puss, Poor Little Feller
N:Transcribed by John Hartford from the playing of Charlie
N:Acuff (1919-2013, Union County, Tennessee). Acuff learned
N:the tune from his grandfather.
M:2/4
L:1/8
B:Stephen F. Davis - Devil's Box, vol. 23, No. 4, Winter 1989 (p. 31)
Z:AK/Fiddler's Companion
K:G
B/A/B/c/ B/A/G/A/|BG/B/ AG|B/A/B/c/ B/A/G/E/|DE/G/ AF:|
|:gg de/f/|g/f/g/a/ ed|gg a/g/e/g/|d/B/d/B/ AG:|
|:BB AG/A/|BB AG|BB AG/E/|D/E/G AG:|
P:Vocal
B G/B/ A/B/G|BG/B/ AG|BG/B/ A/G/E|DE/G/ AG:|
W:Poor little Kitty Puss...poor..little..feller,.....poor little ..Kitty Puss,.....tied in the cellar.

